svgs/charts/horizontal-bar-chart-02.svg

<svg width="24" height="24" viewBox="0 0 24 24" fill="none" xmlns="http://www.w3.org/2000/svg">
<g clip-path="url(#clip0_1541_51876)">
<path d="M17 12.5V15.9C17 16.4601 17 16.7401 16.891 16.954C16.7951 17.1422 16.6422 17.2951 16.454 17.391C16.2401 17.5 15.9601 17.5 15.4 17.5L3 17.5M13 17.5V20.9C13 21.4601 13 21.7401 12.891 21.954C12.7951 22.1422 12.6422 22.2951 12.454 22.391C12.2401 22.5 11.9601 22.5 11.4 22.5H3M3 5L3 25M3 12.5L19.4 12.5C19.9601 12.5 20.2401 12.5 20.454 12.391C20.6422 12.2951 20.7951 12.1422 20.891 11.954C21 11.7401 21 11.4601 21 10.9V9.1C21 8.53995 21 8.25992 20.891 8.04601C20.7951 7.85785 20.6422 7.70487 20.454 7.60899C20.2401 7.5 19.9601 7.5 19.4 7.5L3 7.5L3 12.5Z" stroke="#1C1D20" stroke-width="1.5" stroke-linecap="round" stroke-linejoin="round"/>
</g>
<defs>
<clipPath id="clip0_1541_51876">
<rect width="24" height="24" fill="white"/>
</clipPath>
</defs>
</svg>

<svg fill="none" xmlns="http://www.w3.org/2000/svg" viewBox="0 0 24 24"><g clip-path="url(#a)"><path d="M17 12.5v3.4c0 .56 0 .84-.109 1.054a1 1 0 0 1-.437.437c-.214.109-.494.109-1.054.109H3m10 0v3.4c0 .56 0 .84-.109 1.054a1 1 0 0 1-.437.437c-.214.109-.494.109-1.054.109H3M3 5v20m0-12.5h16.4c.56 0 .84 0 1.054-.109a1 1 0 0 0 .437-.437C21 11.74 21 11.46 21 10.9V9.1c0-.56 0-.84-.109-1.054a1 1 0 0 0-.437-.437C20.24 7.5 19.96 7.5 19.4 7.5H3v5Z" stroke="#1C1D20" stroke-width="1.5" stroke-linecap="round" stroke-linejoin="round"/></g><defs><clipPath id="a"><path fill="#fff" d="M0 0h24v24H0z"/></clipPath></defs></svg>
